svg/google.svg

<svg width="24" height="24" viewBox="0 0 24 24" xmlns="http://www.w3.org/2000/svg">
<path d="M21.35 11.1H12.18V13.83H18.69C18.36 17.64 15.19 19.27 12.19 19.27C8.36003 19.27 5.00003 16.25 5.00003 12C5.00003 7.9 8.20003 4.73 12.2 4.73C15.29 4.73 17.1 6.7 17.1 6.7L19 4.72C19 4.72 16.56 2 12.1 2C6.42003 2 2.03003 6.8 2.03003 12C2.03003 17.05 6.16003 22 12.25 22C17.6 22 21.5 18.33 21.5 12.91C21.5 11.76 21.35 11.1 21.35 11.1Z"/>
</svg>

<svg width="24" height="24" viewBox="0 0 24 24" xmlns="http://www.w3.org/2000/svg"><path d="M21.35 11.1h-9.17v2.73h6.51c-.33 3.81-3.5 5.44-6.5 5.44C8.36 19.27 5 16.25 5 12c0-4.1 3.2-7.27 7.2-7.27 3.09 0 4.9 1.97 4.9 1.97L19 4.72S16.56 2 12.1 2C6.42 2 2.03 6.8 2.03 12c0 5.05 4.13 10 10.22 10 5.35 0 9.25-3.67 9.25-9.09 0-1.15-.15-1.81-.15-1.81z"/></svg>
